X:6
T:Rampi Rampi
F:http://www.hiico.com/.abc/rampi_rampi.abc
O:Turkey
K:Em
M:9/8
L:1/16
Z:Lee Wenzbauer lee@hiico.com 24 August, 2004
f | "Em" g2gf e2e2 "B" f2fe ^d2^d2^d2 | "Am" e2e^d =c2^d2 "B" B2c2 ^d2e2f2 | "Em" g2gf e2e2 "B" f2fe  ^d2^d2^d2 |[1 "Am" e2e^d =c2^d2 "B" {c^dc}c2B2  B2B2f2 :|[2 "Am" e2e^d =c2^d2 {c^dc}c2B2 "B" B2z4
| "Am" A4B2 z2c4 ^d2^d2z2 | "Em" {efe}e3^d c2^d2 "B" {c^dc}c2B2 B2 B2 z2 | "Am" A4 B2z2 c4 ^d2^d2z2 | "Em" {efe}e3^d c2^d2 "B" {c^dc}c2B2 B2B2(3BcB
|: "Am" A18- | A18 | "Am" A4B2 c2A4 B2c4 | A4B2 c2A4 B2c4 | A4B2 c2^d2e2 f2efe2 |[1 "B" ^d2c2cB- B10(3BcB :|[2 "B" ^d2c2cB- B10f
